src/svg/broadcast.svg

<svg height="16" width="16" xmlns="http://www.w3.org/2000/svg" viewBox="0 0 16 16">
  <path d="M9 9h-1c0.55 0 1-0.45 1-1v-1c0-0.55-0.45-1-1-1h-1c-0.55 0-1 0.45-1 1v1c0 0.55 0.45 1 1 1h-1c-0.55 0-1 0.45-1 1v2h1v3c0 0.55 0.45 1 1 1h1c0.55 0 1-0.45 1-1V12h1V10c0-0.55-0.45-1-1-1zM7 7h1v1h-1v-1z m2 4h-1v4h-1V11h-1v-1h3v1z m2.09-3.5c0-1.98-1.61-3.59-3.59-3.59S3.91 5.52 3.91 7.5c0 0.28 0.03 0.55 0.09 0.81v1.98c-0.61-0.77-1-1.73-1-2.8 0-2.48 2.02-4.5 4.5-4.5s4.5 2.02 4.5 4.5c0 1.06-0.39 2.03-1 2.8V8.31c0.06-0.27 0.09-0.53 0.09-0.81z m3.91 0c0 2.88-1.63 5.38-4 6.63v-1.05c1.86-1.16 3.09-3.22 3.09-5.58 0-3.64-2.95-6.59-6.59-6.59S0.91 3.86 0.91 7.5c0 2.36 1.23 4.42 3.09 5.58v1.05C1.63 12.88 0 10.38 0 7.5 0 3.36 3.36 0 7.5 0s7.5 3.36 7.5 7.5z" />
</svg>

<?xml version="1.0" encoding="UTF-8" standalone="no"?>
<svg width="16px" height="16px" viewBox="0 0 16 16" version="1.1" xmlns="http://www.w3.org/2000/svg" xmlns:xlink="http://www.w3.org/1999/xlink">
    <!-- Generator: Sketch 3.7.1 (28215) - http://www.bohemiancoding.com/sketch -->
    <title>broadcast</title>
    <desc>Created with Sketch.</desc>
    <defs></defs>
    <g id="Octicons" stroke="none" stroke-width="1" fill="none" fill-rule="evenodd">
        <g id="broadcast" fill="#000000">
            <path d="M9,9 L8,9 C8.55,9 9,8.55 9,8 L9,7 C9,6.45 8.55,6 8,6 L7,6 C6.45,6 6,6.45 6,7 L6,8 C6,8.55 6.45,9 7,9 L6,9 C5.45,9 5,9.45 5,10 L5,12 L6,12 L6,15 C6,15.55 6.45,16 7,16 L8,16 C8.55,16 9,15.55 9,15 L9,12 L10,12 L10,10 C10,9.45 9.55,9 9,9 L9,9 Z M7,7 L8,7 L8,8 L7,8 L7,7 L7,7 Z M9,11 L8,11 L8,15 L7,15 L7,11 L6,11 L6,10 L9,10 L9,11 L9,11 Z M11.09,7.5 C11.09,5.52 9.48,3.91 7.5,3.91 C5.52,3.91 3.91,5.52 3.91,7.5 C3.91,7.78 3.94,8.05 4,8.31 L4,10.29 C3.39,9.52 3,8.56 3,7.49 C3,5.01 5.02,2.99 7.5,2.99 C9.98,2.99 12,5.01 12,7.49 C12,8.55 11.61,9.52 11,10.29 L11,8.31 C11.06,8.04 11.09,7.78 11.09,7.5 L11.09,7.5 Z M15,7.5 C15,10.38 13.37,12.88 11,14.13 L11,13.08 C12.86,11.92 14.09,9.86 14.09,7.5 C14.09,3.86 11.14,0.91 7.5,0.91 C3.86,0.91 0.91,3.86 0.91,7.5 C0.91,9.86 2.14,11.92 4,13.08 L4,14.13 C1.63,12.88 0,10.38 0,7.5 C0,3.36 3.36,0 7.5,0 C11.64,0 15,3.36 15,7.5 L15,7.5 Z" id="Shape"></path>
        </g>
    </g>
</svg>
